icons/workspace-untrusted.svg

<svg xmlns="http://www.w3.org/2000/svg" viewBox="0 0 24 24"><path fill="#ef5350" d="M12 1 3 5v6c0 5.55 3.84 10.74 9 12 5.16-1.26 9-6.45 9-12V5M11 7h2v6h-2m0 2h2v2h-2"/></svg>

<svg xmlns="http://www.w3.org/2000/svg" viewBox="0 0 24 24" width="16px" height="16px">
    <path fill="#EF5350"
          d="M12,1L3,5V11C3,16.55 6.84,21.74 12,23C17.16,21.74 21,16.55 21,11V5M11,7H13V13H11M11,15H13V17H11" />
</svg>
